!!!!SEGMENT: pl-kk--kk-i-3--042_anonim--rorate-caeli.krn
!!!cenid: 15xx:652
!!!COM: Anonim
!!!COM-rismID: pe30004985
!!!CDT:
!!!CNT:
!!!OTL: Rorate caeli
!!!PDT:
!!!AGN:
!!!YEC: Copyright 2022 Narodowy Instytut Fryderyka Chopina (https://polishscores.org)
!!!YEM: License CC-BY-4.0 (https://creativecommons.org/licenses/by/4.0)
!!!SMS-siglum: PL-Kk
!!!SMS-shelfmark: Kk.I.3
!!!SMS-shelfwork: 042 W
!!!SMS-variant:
!!!SMS-altvar:
!!!NIFC-rismSourceID: 1001145493
!!!NIFC-rismChildID: 1001145546
!!!NIFC-islandoraID: pl-kk:1170
!!!URL-pdf-islandora: https://repozytorium.nifc.pl/islandora/object/pl-kk%3A1170/datastream/PDF/view
!!!URL-scan: https://polish.musicsources.pl/pl/lokalizacje/galeria/rekopisy/5919 @EN{Scan on Polish Music Sources Website} @PL{Skany w portalu Dziedzictwo Muzyki Polskiej w otwartym dostępie}
!!!IIIF:
!!!ONB-nifc: UWAGA: Discantus (s. 122r-124r, skan 0124-0126), Tenor (s. 92r-93r, skan 0264-0265), Bassus (s. 118r-120r, skan 0421-0423)
!!!AIN: 1 bass 1 empty 1 tenor
!!!key: d:dor
**kern	**text	**kern	**text	**kern	**text
*part3	*	*part2	*	*part1	*
*staff3	*	*staff2	*	*staff1	*
*Ibass	*	*Itenor	*	*Iempty	*
*I"Bassus	*	*I"Tenore	*	*I"Discantus	*
*I'B	*	*I'T.	*	*I'D	*
*ICvox	*	*ICvox	*	*ICvox	*
*clefF4	*	*clefC4	*	*clefC4	*
*k[]	*	*k[]	*	*k[]	*
*d:dor	*	*d:dor	*	*d:dor	*
*M2/1	*	*M2/1	*	*M2/1	*
*met(C|)	*	*met(C|)	*	*met(C|)	*
=1-	=1-	=1-	=1-	=1-	=1-
*2\right	*	*2\right	*	*2\right	*
*4\right	*	*4\right	*	*4\right	*
!	!	!	!	!LO:TX:a:B:t=Prestissimo	!
*	*	*	*	*lig	*
0r	.	0r	.	1G	Ro-
.	.	.	.	1A	.
*	*	*	*	*Xlig	*
=2-	=2-	=2-	=2-	=2-	=2-
*	*	*	*	*lig	*
0r	.	0r	.	1A	-ra-
.	.	.	.	1e	.
=3-	=3-	=3-	=3-	=3-	=3-
*	*	*	*	*Xlig	*
!	!	!	!	!LO:TX:a:t=2	!
0r	.	0r	.	0f	.
=4-	=4-	=4-	=4-	=4-	=4-
0r	.	1r	.	2.e\	-te
.	.	.	.	4d\	.
*	*	*lig	*	*	*
.	.	1C	Ro-	4c/	.
.	.	.	.	4B/	.
.	.	.	.	2.A/	.
=5-	=5-	=5-	=5-	=5-	=5-
0r	.	1D	.	.	.
.	.	.	.	4G/	.
.	.	.	.	4F/	.
*	*	*	*	*custos:D	*
.	.	.	.	4E/	.
*	*	*Xlig	*	*	*
!	!	!	!	!LO:LB:g=original	!
*	*	*lig	*	*	*
.	.	1D	-ra-	1D	.
=6-	=6-	=6-	=6-	=6-	=6-
*lig	*	*	*	*	*
1FF	Ro-	1A	.	2C/	.
.	.	.	.	1F	.
1GG	.	0B	.	.	.
.	.	.	.	4E/	.
.	.	.	.	4D/	.
*Xlig	*	*	*	*	*
=7-	=7-	=7-	=7-	=7-	=7-
*lig	*	*	*	*	*
1GG	-ra-	.	.	1E	.
*	*	*Xlig	*	*	*
!	!	!LO:TX:a:t=2	!	!	!
1D	.	0A	-te	1F	.
*Xlig	*	*	*	*	*
=8-	=8-	=8-	=8-	=8-	=8-
1F	-te	.	.	2F/	.
.	.	.	.	1D	.
*	*	*lig	*	*	*
1D	ce-	1A	ce-	.	.
.	.	.	.	2.d\	ce-
=9-	=9-	=9-	=9-	=9-	=9-
*lig	*	*	*	*	*
1D	.	1B	.	.	.
.	.	.	.	4e\	.
.	.	.	.	2f\	.
*	*	*Xlig	*	*	*
*custos:F	*	*	*	*	*
*	*	*	*	*lig	*
1E	.	2.c/	.	1e	.
.	.	4B/	.	.	.
*Xlig	*	*	*	*	*
!LO:LB:g=original	!	!	!	!	!
=10-	=10-	=10-	=10-	=10-	=10-
2.F/	.	2A/	.	1c	.
*	*	*custos:A	*	*	*
.	.	2G/	.	.	.
4E/	.	.	.	.	.
!	!	!LO:LB:g=original	!	!	!
*	*	*	*	*Xlig	*
2D/	.	2A/	.	2d\	.
*	*	*	*	*custos:f	*
2C/	.	2c/	.	2e\	.
!	!	!	!	!LO:LB:g=original	!
=11-	=11-	=11-	=11-	=11-	=11-
!	!	!	!	!LO:CL:ed	!
*	*	*	*	*clefC3	*
1D	.	2B/	.	1f	.
.	.	1A	.	.	.
0C	-li	.	.	2.e\	.
.	.	4G/	.	.	.
.	.	4F/	.	4d/	.
=12-	=12-	=12-	=12-	=12-	=12-
.	.	1G	.	4e\	.
.	.	.	.	4f\	.
.	.	.	.	1g	.
1r	.	1A	.	.	.
.	.	.	.	2f\	.
=13-	=13-	=13-	=13-	=13-	=13-
1r	.	1G	-li	2g\	.
.	.	.	.	4f\	.
.	.	.	.	4e\	.
*lig	*	*	*	*	*
1D	de-	1r	.	1d	.
=14-	=14-	=14-	=14-	=14-	=14-
1F	.	1r	.	1c	-li
*Xlig	*	*	*	*	*
*lig	*	*lig	*	*	*
1F	-sv-	1A	de	2r	.
.	.	.	.	2d/	de
=15-	=15-	=15-	=15-	=15-	=15-
1E	.	1c	.	2e/	.
.	.	.	.	1g	.
*Xlig	*	*Xlig	*	*	*
*lig	*	*lig	*	*	*
1F	.	1c	sv-	.	.
*	*	*	*	*custos:e	*
.	.	.	.	1f\	.
!	!	!	!	!LO:LB:g=original	!
=16-	=16-	=16-	=16-	=16-	=16-
1G	.	1B	.	.	.
.	.	.	.	2e\	sv-
*Xlig	*	*Xlig	*	*	*
*2\right	*	*lig	*	*	*
1.F	.	1c	.	1f	-per
=17-	=17-	=17-	=17-	=17-	=17-
.	.	1d	.	2r	.
2G\	.	.	.	2.g\	.
*	*	*Xlig	*	*	*
1A	.	1c	.	.	.
.	.	.	.	4e/	.
.	.	.	.	2f\	.
=18-	=18-	=18-	=18-	=18-	=18-
*	*	*2\right	*	*	*
*custos:E	*	*custos:e	*	*	*
2G\	.	2d\	.	2d/	.
!LO:LB:g=original	!	!LO:LB:g=original	!	!	!
2E/	.	2e\	.	2g\	.
2F\	.	2d\	.	4f\	.
.	.	.	.	4e/	.
2A\	.	1c\	.	4d/	.
.	.	.	.	4c/	.
=19-	=19-	=19-	=19-	=19-	=19-
1G	-per	.	.	1d	.
.	.	2B/	.	.	.
1F	.	0c	-per	2A/	.
.	.	.	.	2.c/	et
=20-	=20-	=20-	=20-	=20-	=20-
1C	et	.	.	.	.
.	.	.	.	4B/	.
*	*	*	*	*custos:G	*
.	.	.	.	1A	.
*lig	*	*	*	*	*
1E	nu-	1r	.	.	.
!	!	!	!	!LO:LB:g=original	!
.	.	.	.	2G/	.
=21-	=21-	=21-	=21-	=21-	=21-
1F	.	0r	.	2A/	.
.	.	.	.	2.A/	nu-
*Xlig	*	*	*	*	*
1D	-bes	.	.	.	.
.	.	.	.	4G/	.
.	.	.	.	4F/	.
.	.	.	.	4E/	.
=22-	=22-	=22-	=22-	=22-	=22-
1D	.	1r	.	2D/	.
.	.	.	.	1d	.
2.E/	plv-	1G	et	.	.
.	.	.	.	2c/	-bes
4F/	.	.	.	.	.
=23-	=23-	=23-	=23-	=23-	=23-
*	*	*lig	*	*lig	*
1D	.	1B	nu-	1d	.
1C	.	1c	.	1e	.
*	*	*Xlig	*	*	*
=24-	=24-	=24-	=24-	=24-	=24-
*	*	*	*	*Xlig	*
*	*	*	*	*col	*
1.D	.	1A	.	1f	.
.	.	1A	-bes	1e	.
*custos:BB	*	*	*	*	*
2C/	.	.	.	.	.
*	*	*	*	*Xcol	*
!LO:LB:g=original	!	!	!	!	!
=25-	=25-	=25-	=25-	=25-	=25-
*	*	*lig	*	*	*
1BB	.	1B	plv-	1d	.
*	*	*	*	*custos:A	*
2AA/	-ant	1c	.	2c/	plv-
!	!	!	!	!LO:PB:g=original	!
1A\	iu-	.	.	4A/	-ant
.	.	.	.	4B/	.
*	*	*Xlig	*	*	*
=26-	=26-	=26-	=26-	=26-	=26-
.	.	1A	.	4c/	.
.	.	.	.	4d/	.
2G\	.	.	.	1e	.
1F	.	1A	-ant	.	.
.	.	.	.	2d/	.
=27-	=27-	=27-	=27-	=27-	=27-
*	*	*lig	*	*	*
1E	-stum	1G	iu-	1e	.
*	*	*custos:A	*	*	*
2F\	.	1F	.	2c/	.
2.D/	.	.	.	2.d/	.
*	*	*Xlig	*	*	*
!	!	!LO:LB:g=original	!	!	!
=28-	=28-	=28-	=28-	=28-	=28-
*	*	*lig	*	*	*
.	.	1A	.	.	.
4E/	.	.	.	4c/	.
2F\	.	.	.	2c/	.
2G\	.	1G	.	1B	iu-
2GG/	.	.	.	.	.
*	*	*Xlig	*	*	*
=29-	=29-	=29-	=29-	=29-	=29-
*	*	*	*	*custos:B	*
2AA/	.	2F/	.	2A/	.
!	!	!	!	!LO:LB:g=original	!
1GG	.	2.G/	.	2.B/	.
.	.	4F/	.	4A/	.
*custos:C	*	*	*	*	*
2D/	.	1F/	.	4G/	.
.	.	.	.	4F/	.
!LO:LB:g=original	!	!	!	!	!
=30-	=30-	=30-	=30-	=30-	=30-
1C	.	.	.	1G	.
.	.	2E/	.	.	.
2FF/	.	1F	-stum	2.F/	.
2.F\	ap-	.	.	.	.
.	.	.	.	4G/	.
=31-	=31-	=31-	=31-	=31-	=31-
.	.	1F	ap-	4A/	.
4G\	-pe-	.	.	4B/	.
2A\	-ri-	.	.	1c	.
1G	.	1G	-pe-	.	.
.	.	.	.	2B/	.
=32-	=32-	=32-	=32-	=32-	=32-
1.F	-a-	1A	-ri-	1c	.
*	*	*lig	*	*	*
.	.	1A	-a-	2F/	-stum
2D/	-tur	.	.	2f\	ap-
=33-	=33-	=33-	=33-	=33-	=33-
*	*	*	*	*custos:g	*
2.C/	.	1c	.	2e\	-pe-
!	!	!	!	!LO:LB:g=original	!
.	.	.	.	1g	-ri-
4BB/	.	.	.	.	.
*	*	*Xlig	*	*	*
4C/	.	1G	-tur	.	.
4D/	.	.	.	.	.
2E/	.	.	.	4f\	.
.	.	.	.	4e\	-a-
=34-	=34-	=34-	=34-	=34-	=34-
*	*	*custos:G	*	*	*
1D	.	1F	ter-	1f	-tur
*custos:D	*	*	*	*	*
!	!	!LO:LB:g=original	!	!	!
2C/	.	2G/	.	2e\	.
!LO:PB:g=original	!	!	!	!	!
1D\	te-	1F/	.	1A/	.
=35-	=35-	=35-	=35-	=35-	=35-
.	.	.	.	.	.
4C/	-ra	4E/	.	1d	.
4BB/	.	4D/	.	.	.
1AA	.	1E	.	.	.
.	.	.	.	2c/	ter-
=36-	=36-	=36-	=36-	=36-	=36-
2.A\	.	0D	-ra	2.d/	-ra
4G/	.	.	.	8c/L	.
.	.	.	.	8B/J	.
4F/	.	.	.	2A/	.
4E/	.	.	.	.	.
2.D\	.	.	.	2.B/	.
=37-	=37-	=37-	=37-	=37-	=37-
.	.	0r	.	.	.
4C/	.	.	.	4A/	.
4BB/	.	.	.	4G/	.
4AA/	.	.	.	4F/	.
*	*	*	*	*custos:A	*
1GG	.	.	.	1G	.
!	!	!	!	!LO:LB:g=original	!
=38-	=38-	=38-	=38-	=38-	=38-
2FF/	.	1F	et	2.A/	et
2.F/	et	.	.	.	.
.	.	.	.	4B/	.
.	.	1F	ger-	2c/	ger-
*custos:D	*	*	*	*	*
4E/	.	.	.	.	.
!LO:LB:g=original	!	!	!	!	!
2D/	.	.	.	2d/	.
=39-	=39-	=39-	=39-	=39-	=39-
1C	.	1G	-mi-	1e	.
*	*	*lig	*	*	*
1D	ger-	1F	-net	4d/	.
.	.	.	.	4c/	.
.	.	.	.	1f\	.
=40-	=40-	=40-	=40-	=40-	=40-
1C	-mi-	1G	.	.	.
.	.	.	.	2e\	-mi-
*lig	*	*Xlig	*	*	*
1FF	-net	1F	.	2.f\	-net
.	.	.	.	4e\	.
=41-	=41-	=41-	=41-	=41-	=41-
1GG	.	1D	.	2d/	.
.	.	.	.	2B-X/	sal-
*Xlig	*	*	*	*	*
*	*	*custos:D	*	*	*
2FF/	.	2r	.	2c/	.
*	*	*	*	*custos:c	*
!	!	!LO:PB:g=original	!	!	!
1F\	.	2.D/	sal-	1d\	-va-
!	!	!	!	!LO:LB:g=original	!
=42-	=42-	=42-	=42-	=42-	=42-
.	.	.	.	.	.
.	.	4E/	.	.	.
4E/	.	2F/	-va-	2.c/	.
4D/	.	.	.	.	.
2.E/	.	1C	-to-	.	.
.	.	.	.	4Bny/	.
.	.	.	.	2c/	.
4F\	.	.	.	.	.
=43-	=43-	=43-	=43-	=43-	=43-
*	*	*lig	*	*lig	*
2.D/	sal-	1F	.	1A	.
4C/	-va-	.	.	.	.
*custos:AA	*	*	*	*	*
1BB	.	1D	.	1d	.
*	*	*Xlig	*	*Xlig	*
!LO:LB:g=original	!	!	!	!	!
=44-	=44-	=44-	=44-	=44-	=44-
0AA	-to-	2E/	.	0c	.
.	.	1F	.	.	.
.	.	4E/	.	.	.
.	.	4D/	.	.	.
=45-	=45-	=45-	=45-	=45-	=45-
2AA/	.	2E/	.	2c/	.
2FF/	.	2.F/	.	2A/	.
1GG	.	.	.	1B	.
.	.	4D/	.	.	.
.	.	2E/	.	.	.
=46-	=46-	=46-	=46-	=46-	=46-
*	*	*custos:G	*	*	*
2FF/	.	2F/	.	2A/	.
!	!	!LO:LB:g=original	!	!	!
1C	.	2G/	.	2.e/	.
.	.	1D	.	.	.
.	.	.	.	4d/	-to-
2BB/	.	.	.	1d\	-rem
=47-	=47-	=47-	=47-	=47-	=47-
1AA	.	1E	.	.	.
.	.	.	.	2c/	.
*	*	*	*	*custos:d	*
!	!	!LO:N:vis=00/	!	!	!
2BB/	.	0.D;	-rem	1d	.
2GG/	.	.	.	.	.
!	!	!	!	!LO:LB:g=original	!
=48-	=48-	=48-	=48-	=48-	=48-
2.BB/	.	.	.	2d/	.
.	.	.	.	4c/	.
4C/	.	.	.	4B/	.
*custos:C	*	*	*	*	*
!LO:N:vis=0	!	!	!	!LO:N:vis=00;/	!
0.D;;	-rem	.	.	0.A;	.
!LO:LB:g=original	!	!	!	!	!
=49-	=49-	=49-	=49-	=49-	=49-
.	.	0Dyy	.	.	.
=50||-	=50||-	=50||-	=50||-	=50||-	=50||-
1.C	Ce-	0r	.	0r	.
1.D\	-li	.	.	.	.
=51-	=51-	=51-	=51-	=51-	=51-
.	.	0r	.	0r	.
2E/	e-	.	.	.	.
1F\	-nar-	.	.	.	.
=52-	=52-	=52-	=52-	=52-	=52-
.	.	0r	.	1.c	Ce-
4E/	.	.	.	.	.
4D/	.	.	.	.	.
2E/	.	.	.	.	.
2F/	.	.	.	1.d\	-li
=53-	=53-	=53-	=53-	=53-	=53-
1D	-rant	0r	.	.	.
1C	.	.	.	1e	e-
=54-	=54-	=54-	=54-	=54-	=54-
2BB/	.	0r	.	2d/	.
2AA/	.	.	.	4c/	.
.	.	.	.	4B/	.
2D/	.	.	.	4A/	.
*	*	*	*	*custos:G	*
.	.	.	.	4F/	.
*custos:BB	*	*	*	*	*
!	!	!	!	!LO:LB:g=original	!
2C/	.	.	.	1G/	.
!LO:LB:g=original	!	!	!	!	!
=55-	=55-	=55-	=55-	=55-	=55-
2BB/	.	0r	.	.	.
2AA/	.	.	.	2A/	-nar-
1GG	.	.	.	1D	-rant
=56-	=56-	=56-	=56-	=56-	=56-
2FF/	.	0r	.	2.A/	.
1F	.	.	.	.	.
.	.	.	.	4G/	.
.	.	.	.	2F/	.
2BB/	.	.	.	1f\	.
=57-	=57-	=57-	=57-	=57-	=57-
2.C/	.	1r	.	.	.
.	.	.	.	2e/	.
4BB/	.	.	.	.	.
2AA/	.	1F	Ce-	2f\	.
2BB/	.	.	.	1d\	.
=58-	=58-	=58-	=58-	=58-	=58-
*	*	*lig	*	*	*
1GG	.	1G	-li	.	.
.	.	.	.	2g\	.
*	*	*	*	*custos:f	*
0FF	.	1A	.	2c/	.
!	!	!	!	!LO:LB:g=original	!
.	.	.	.	1f\	.
*	*	*Xlig	*	*	*
=59-	=59-	=59-	=59-	=59-	=59-
.	.	1A	e-	.	.
.	.	.	.	4e\	.
.	.	.	.	4d/	.
2r	.	1A	-nar-	4e\	.
.	.	.	.	4d/	.
2.F\	glo-	.	.	4c/	.
.	.	.	.	4B/	.
=60-	=60-	=60-	=60-	=60-	=60-
*	*	*custos:A	*	*	*
.	.	1A	-rat	4A/	.
*custos:D	*	*	*	*	*
!	!	!LO:LB:g=original	!	!	!
4E/	.	.	.	4G/	.
!LO:LB:g=original	!	!	!	!	!
2D/	-ri-	.	.	2F/	.
*	*	*lig	*	*	*
2C/	-am	1A	glo-	2E/	.
1D\	de-	.	.	2.F/	.
=61-	=61-	=61-	=61-	=61-	=61-
.	.	1c	.	.	.
.	.	.	.	4D/	.
2C/	.	.	.	2E/	.
*lig	*	*Xlig	*	*	*
1D	.	1A	-ri-	2D/	.
*	*	*	*	*custos:c	*
.	.	.	.	2d\	glo-
!	!	!	!	!LO:LB:g=original	!
=62-	=62-	=62-	=62-	=62-	=62-
*col	*	*	*	*	*
2.AA/	.	1A	-am	2.c/	-ri-
*Xlig	*	*	*	*	*
4BB/	.	.	.	4d/	-am
*Xcol	*	*	*	*	*
2C/	.	2G/	de-	4e\	.
.	.	.	.	4f\	.
2GG/	.	1B\	.	2g\	.
=63-	=63-	=63-	=63-	=63-	=63-
2G\	.	.	.	1d	.
2F/	.	2A/	.	.	.
2E/	.	2G/	.	2e\	.
2.D/	.	1B\	.	2f\	.
=64-	=64-	=64-	=64-	=64-	=64-
.	.	.	.	2d\	.
4GG/	.	.	.	.	.
1C	.	2A/	.	1e	.
.	.	2G/	.	.	.
*custos:BB	*	*	*	*	*
2AA/	.	2c/	.	2c/	de-
!LO:LB:g=original	!	!	!	!	!
=65-	=65-	=65-	=65-	=65-	=65-
2BB/	.	2B/	.	2d\	.
1C	.	2A/	.	1e	.
.	.	2G/	.	.	.
*	*	*custos:B	*	*	*
2D/	.	2F/	.	2.f\	.
!	!	!LO:LB:g=original	!	!	!
=66-	=66-	=66-	=66-	=66-	=66-
2BB-X/	.	2B/	.	.	.
*	*	*	*	*custos:e	*
.	.	.	.	4d/	.
!	!	!	!	!LO:LB:g=original	!
2C/	.	1A	.	2e\	.
2D/	.	.	.	4d/	.
.	.	.	.	4f\	.
2E/	.	2G/	.	4e\	.
.	.	.	.	4d/	.
=67-	=67-	=67-	=67-	=67-	=67-
!	!	!LO:N:vis=00	!	!	!
0F;<	-i	0A;<	-i	0c;	-i
=68||-	=68||-	=68||-	=68||-	=68||-	=68||-
1r	.	0r	.	0d	Et
*lig	*	*	*	*	*
1D	et	.	.	.	.
=69-	=69-	=69-	=69-	=69-	=69-
*	*	*lig	*	*	*
1C	.	1G	Et	1e	o-
*Xlig	*	*	*	*	*
*lig	*	*	*	*	*
1D	o-	1F	.	2f\	-pe-
.	.	.	.	1d\	-ra
*	*	*Xlig	*	*	*
=70-	=70-	=70-	=70-	=70-	=70-
*	*	*lig	*	*	*
1E	.	1G	o-	.	.
.	.	.	.	2c/	.
*Xlig	*	*	*	*	*
*custos:F	*	*	*	*	*
2D/	.	1A	.	2d/	.
!LO:LB:g=original	!	!	!	!	!
2.F/	.	.	.	1c\	ma-
*	*	*Xlig	*	*	*
=71-	=71-	=71-	=71-	=71-	=71-
.	.	2A/	-pe-	.	.
4E/	.	.	.	.	.
*	*	*	*	*custos:e	*
1D	-pe-	1A,	-ra	2d/	-nu-
!	!	!	!	!LO:PB:g=original	!
.	.	.	.	1e	-um
2C,/	-ra	1A\	ma-	.	.
=72-	=72-	=72-	=72-	=72-	=72-
0D	ma-	.	.	2d/	.
.	.	1A	-nu-	2.f/	e-
.	.	.	.	4e/	-ius
.	.	2A/	-um	1d\	.
=73-	=73-	=73-	=73-	=73-	=73-
*	*	*custos:A	*	*	*
1AA	-n(u)m	1A	e-	.	.
.	.	.	.	2c/	.
!	!	!LO:LB:g=original	!	!	!
2r	.	1A	-ius	2.d/	A-
2D/	e-	.	.	.	.
.	.	.	.	4e/	-nunc-
=74-	=74-	=74-	=74-	=74-	=74-
2D/	-ius	2r	.	2f\	.
2D/	a-	2A/	a-	2.F/	.
2.D/	-nun-	2A/	-nunc-	.	.
.	.	.	.	4G/	.
.	.	2A/	-ti-	2.A/	.
4E/	.	.	.	.	.
=75-	=75-	=75-	=75-	=75-	=75-
*	*	*lig	*	*	*
1F	.	1A	-at	.	.
.	.	.	.	4B/	.
*	*	*	*	*custos:d	*
.	.	.	.	2c/	.
!	!	!	!	!LO:LB:g=original	!
1D	-cti-	1B	.	1d	.
*	*	*Xlig	*	*	*
=76-	=76-	=76-	=76-	=76-	=76-
*custos:FF	*	*	*	*	*
*	*	*lig	*	*	*
2C/	-at	1c	.	2e\	.
!LO:LB:g=original	!	!	!	!	!
2.FF/	fir-	.	.	1c	.
.	.	1A	.	.	.
4GG/	.	.	.	.	.
2AA/	.	.	.	4B/	.
.	.	.	.	4A/	.
*	*	*Xlig	*	*	*
=77-	=77-	=77-	=77-	=77-	=77-
2BBny/	.	1G	fir-	2d/	.
2C/	.	.	.	4c/	.
.	.	.	.	4B/	.
1D	.	2F/	-ma-	1A	-ci-
.	.	2F/	-men-	.	.
=78-	=78-	=78-	=78-	=78-	=78-
2AA/	-ma-	2E/	.	1A	-at
2.A\	-men-	1F	.	.	.
.	.	.	.	1r	.
4G\	.	.	.	.	.
2F\	.	4E/	.	.	.
*	*	*custos:C	*	*	*
.	.	4D/	.	.	.
!	!	!LO:LB:g=original	!	!	!
=79-	=79-	=79-	=79-	=79-	=79-
2E/	.	2C/	.	0r	.
2D/	.	2D/	.	.	.
2C/	.	2E/	.	.	.
2.D\	.	2.F/	.	.	.
=80-	=80-	=80-	=80-	=80-	=80-
.	.	.	.	2r	.
4C/	.	4E/	.	.	.
*custos:AA	*	*	*	*	*
*	*	*	*	*lig	*
2BB/	.	1D	.	1d	fir-
!LO:LB:g=original	!	!	!	!	!
1AA	.	.	.	.	.
*	*	*	*	*col	*
.	.	2C/	.	2.e\	.
*	*	*	*	*Xlig	*
=81-	=81-	=81-	=81-	=81-	=81-
2GG/	.	1D	.	.	.
.	.	.	.	4d/	.
*	*	*	*	*Xcol	*
2FF/	.	.	.	2.d/	.
2GG/	.	1E	.	.	.
*	*	*	*	*custos:c	*
.	.	.	.	4B/	-ma-
!	!	!	!	!LO:LB:g=original	!
2AA/	.	.	.	2c/	.
=82-	=82-	=82-	=82-	=82-	=82-
2FF/	.	00D;	-tum	2A/	.
2GG/	.	.	.	2G/	.
4FF/	.	.	.	1B-X	-men-
4EE/	.	.	.	.	.
0DD;</	-tum	.	.	.	.
=83-	=83-	=83-	=83-	=83-	=83-
!	!	!	!	!LO:N:vis=00	!
.	.	.	.	0A;	-tum
2r	.	.	.	.	.
=84||-	=84||-	=84||-	=84||-	=84||-	=84||-
1F	Glo-	1F	Glo-	2r	.
.	.	.	.	2.f\	Glo-
*	*	*lig	*	*	*
1C	-ri-	1G	-ri-	.	.
.	.	.	.	4d/	-ri-
.	.	.	.	2e\	-a
=85-	=85-	=85-	=85-	=85-	=85-
*custos:D	*	*custos:A	*	*	*
2F/	-a	1A	.	1f	.
!LO:PB:g=original	!	!	!	!	!
2.D/	.	.	.	.	.
*	*	*Xlig	*	*	*
!	!	!LO:LB:g=original	!	!	!
.	.	1A	-a	2d/	.
4C/	.	.	.	.	.
2AA/	.	.	.	2e/	.
=86-	=86-	=86-	=86-	=86-	=86-
*	*	*	*	*custos:f	*
1A	pa-	1A	pa-	2c/	.
!	!	!	!	!LO:LB:g=original	!
.	.	.	.	1f	.
2F/	.	1A,	-tri	.	.
2D/	.	.	.	2f\	.
=87-	=87-	=87-	=87-	=87-	=87-
1A	.	1A	et	1e	.
1D	-tri	1A	fi-	2f\	.
.	.	.	.	1d\	.
=88-	=88-	=88-	=88-	=88-	=88-
2r	.	1A	-li-	.	.
2A\	et	.	.	2c/	.
2F/	fi-	1A	-o	1d	.
2D/	-li-	.	.	.	.
=89-	=89-	=89-	=89-	=89-	=89-
2.A\	-o	1A	et	1e	.
4G\	.	.	.	.	.
2F/	.	1A	spi-	2A/	.
2D/	.	.	.	2d/	.
=90-	=90-	=90-	=90-	=90-	=90-
*	*	*lig	*	*	*
2A\	.	1A	-ri-	2e\	.
*custos:C	*	*	*	*	*
2AA/	.	.	.	1f	.
!LO:LB:g=original	!	!	!	!	!
1C	et	1c	.	.	.
.	.	.	.	2e\	.
*	*	*Xlig	*	*	*
=91-	=91-	=91-	=91-	=91-	=91-
2FF/	spi-	1A	-tu-	1f	.
2.F\	-ri-	.	.	.	.
*	*	*	*	*custos:f	*
.	.	1A	-i	2r	.
4E/	.	.	.	.	.
!	!	!	!	!LO:LB:g=original	!
2D/	.	.	.	2f\	.
=92-	=92-	=92-	=92-	=92-	=92-
*	*	*lig	*	*	*
2C/	-tu-	1A	san-	2e\	.
2D/	-i	.	.	2f\	.
*	*	*custos:G	*	*	*
2.E/	san-	1G	.	2.g\	.
4D/	.	.	.	4f\	.
*	*	*Xlig	*	*	*
!	!	!LO:LB:g=original	!	!	!
=93-	=93-	=93-	=93-	=93-	=93-
*	*	*lig	*	*	*
2C/	.	1G	-cto	2e/	.
2BB/	.	.	.	2d/	.
1AA	-cto	1A	.	1c	.
*	*	*Xlig	*	*	*
=94-	=94-	=94-	=94-	=94-	=94-
*	*	*lig	*	*	*
1C	.	1G	si-	1e	.
2D/	si-	1F	.	2f\	.
2F/	.	.	.	1d\	.
*	*	*Xlig	*	*	*
=95-	=95-	=95-	=95-	=95-	=95-
*custos:D	*	*	*	*	*
*	*	*lig	*	*	*
1E	-cut	1G	-cut	.	.
.	.	.	.	2c/	.
!LO:LB:g=original	!	!	!	!	!
1D	e-	1A	.	1d	.
*	*	*Xlig	*	*	*
=96-	=96-	=96-	=96-	=96-	=96-
*	*	*	*	*custos:f	*
1AA	-rat	1A	e-	1e	.
!	!	!	!	!LO:LB:g=original	!
2D/	.	1A	-rat	2.f\	.
2C/	.	.	.	.	.
.	.	.	.	4e/	.
=97-	=97-	=97-	=97-	=97-	=97-
2.F\	in	1A	in	2d/	.
.	.	.	.	2c/	.
4E/	.	.	.	.	.
2D/	prin-	1A	prin-	2d/	.
2C/	.	.	.	2A/	.
=98-	=98-	=98-	=98-	=98-	=98-
2D/	-ci-	1A	-ci-	2.f\	.
2AA/	-pi-	.	.	.	.
.	.	.	.	4e/	.
2.F\	-o	1A	-pi-	2d/	.
.	.	.	.	2c/	.
4E/	.	.	.	.	.
=99-	=99-	=99-	=99-	=99-	=99-
2D/	.	1A	-o	2d/	.
2C/	.	.	.	1A	.
2F\	et	1A	et	.	.
*custos:A	*	*	*	*	*
2D/	.	.	.	2d/	.
!LO:LB:g=original	!	!	!	!	!
=100-	=100-	=100-	=100-	=100-	=100-
*	*	*lig	*	*	*
2A\	nu(n)c	1A	nu(n)c	2e/	.
2AA/	.	.	.	1f	.
1C	et	1c	.	.	.
*	*	*	*	*custos:f	*
.	.	.	.	2e/	.
*	*	*Xlig	*	*	*
!	!	!	!	!LO:LB:g=original	!
=101-	=101-	=101-	=101-	=101-	=101-
*	*	*custos:A	*	*	*
2FF/	.	1A	et	1f	.
2F/	.	.	.	.	.
!	!	!LO:LB:g=original	!	!	!
*	*	*lig	*	*	*
2C/	.	1A	sem-	2r	.
2D/	.	.	.	2f\	.
=102-	=102-	=102-	=102-	=102-	=102-
2.E/	.	1G	.	2.g\	.
4D/	.	.	.	4f\	.
*	*	*Xlig	*	*	*
*	*	*lig	*	*	*
2C/	sem-	1G	-per	2e/	.
2BB/	-per	.	.	2d/	.
=103-	=103-	=103-	=103-	=103-	=103-
1AA	.	1A	.	1c	.
*	*	*Xlig	*	*	*
*	*	*lig	*	*	*
1C	.	1G	et	1e	.
=104-	=104-	=104-	=104-	=104-	=104-
2D/	et	1F	.	2f\	.
*custos:E	*	*	*	*	*
2F/	.	.	.	1d	.
*	*	*Xlig	*	*	*
*	*	*lig	*	*	*
1E	.	1G	in	.	.
.	.	.	.	2c/	.
=105-	=105-	=105-	=105-	=105-	=105-
1D	in	1A	.	1d	.
*	*	*Xlig	*	*	*
*	*	*	*	*custos:A	*
2D/	se-	1A	se-	2d/	.
!	!	!	!	!LO:LB:g=original	!
2C/	.	.	.	2.A/	.
=106-	=106-	=106-	=106-	=106-	=106-
2D/	-cu-	1A	-cu-	.	.
.	.	.	.	4Bny/	.
1AA	-la	.	.	4c/	.
.	.	.	.	4d/	.
.	.	1A	-la	2e\	.
1D\	.	.	.	1f\	.
=107-	=107-	=107-	=107-	=107-	=107-
.	.	1A	se-	.	.
2C/	se-	.	.	1e	.
*	*	*lig	*	*	*
1F	.	1A	-cu-	.	.
.	.	.	.	2d/	.
=108-	=108-	=108-	=108-	=108-	=108-
1E	-cu-	1B	.	1e	.
*	*	*Xlig	*	*	*
*	*	*lig	*	*	*
2AA/	-lo-	1c	.	2e\	.
1A\	-r(um)	.	.	1e\	.
=109-	=109-	=109-	=109-	=109-	=109-
.	.	1A	.	.	.
4G\	.	.	.	2f\	.
4F\	.	.	.	.	.
*	*	*Xlig	*	*	*
*	*	*custos:F	*	*	*
2E/	.	1G	-lo-	2g\	.
*custos:D	*	*	*	*custos:f	*
2C/	.	.	.	2e\	.
!LO:LB:g=original	!	!	!	!LO:LB:g=original	!
=110-	=110-	=110-	=110-	=110-	=110-
2.D/	A-	1F	-rum	2f\	.
.	.	.	.	4e\	.
4E/	.	.	.	4d/	.
*	*	*lig	*	*	*
2F\	.	1F	A-	2c/	.
2FF/	.	.	.	1d\	.
=111-	=111-	=111-	=111-	=111-	=111-
2GG/	.	1E	.	.	.
2AA/	.	.	.	2c/	.
*	*	*Xlig	*	*	*
!	!	!LO:N:vis=00	!	!	!
2BB/	.	0.D;	-men	2.d/	.
1GG/	.	.	.	.	.
.	.	.	.	4c/	.
=112-	=112-	=112-	=112-	=112-	=112-
.	.	.	.	2B/	.
2FF/	.	.	.	2A/	.
1GG	.	.	.	1G	.
=113-	=113-	=113-	=113-	=113-	=113-
*custos:FF	*	*custos:C	*	*	*
!	!	!	!	!LO:N:vis=00/	!
0D;	-men	0Dyy	.	0F;	.
==	==	==	==	==	==
*-	*-	*-	*-	*-	*-
!!!RDF**kern: < = below
!!!system-decoration: [(s1,s2,s3)]
!!!ENC: Andrzej Gręziak
!!!END: 2021-01-19
!!!ENC: Urszula Świątek
!!!END: 2022-01-25
